X: 32897
T: Post-Conscious Modernisation Of Space
R: reel
M: 4/4
K: Eminor
D|:"Em"EBBA B2 AG|"D"(3FGA AF BAGF|"Em"EBBA Bded|"C"cdBc ABGF|
"Em"EBBA B2 AG|"D"(3FGA AF BAGF|"C"EBB "D"FBB GB|[M:3/4]"D"AFF"Bm"E ED:|
|:"Em"Befg f2 ed|"D"(3B^cd AF GABF|"C"cfgf B2 Ad|"Bm"BABd Beed|
"Em"Befg f2 ed|"B"(3B^cd AF GABF|"C"EBB "D"FBB GB|[M:3/4]"D"AFF"Bm"E ED:|

